X:6018
T:Shooting
O:england
M:6/8
C:
S:Chingford MM
N:based on St. Patrick's Day
A:Chingford
R:Jig
%P:A.(AB)$^5$.A
P:A.(AB)5.A
%:
%:
L:1/8
K:G
I:speed 300
P:A
D|:GAG GBd|ded dBG|ABc BAG|1 EFE E2 D:|2 E2 F G2||\
P:B
d|def gag|fed e2 d|def gag|fed e2 d|def  gag|fed efg||


